blockchains/btcdiamond/logo.svg

<svg fill="none" height="250" viewBox="0 0 250 250" width="250" xmlns="http://www.w3.org/2000/svg" xmlns:xlink="http://www.w3.org/1999/xlink"><clipPath id="a"><path d="m0 0h250v250h-250z"/></clipPath><clipPath id="b"><path d="m0 0h250v250h-250z"/></clipPath><g clip-path="url(#a)"><g clip-path="url(#b)"><path d="m125 250c69.036 0 125-55.964 125-125 0-69.0356-55.964-125-125-125-69.0356 0-125 55.9644-125 125 0 69.036 55.9644 125 125 125z" fill="#fcc339"/><path d="m176.442 75.7314.603 1.3395-23.861 10.9555 10.736 35.5476 35.325-17.841.46.929.15-.171-22.886-30.5143zm-1.287-.5985-21.666-10.0789h-56.0236l-23.1372 10.623 24.0643 10.1281h53.5195zm-102.7611 2.4968-21.6649 28.1363 35.26 17.808 10.7784-35.6861zm26.8747 10.7293-11.1384 36.878 36.8248 65.093 36.824-65.093-11.138-36.878zm97.7484 21.355-32.962 16.647-32.852 58.072zm-78.49 74.402-32.6731-57.755-32.7815-16.556zm-68.2864-77.526.2626-.531-.3405.442zm21.8079-32.6717 24.8692-11.4183h57.1253l24.559 11.4245 24.523 32.6965-78.12 88.691-78.13-88.701zm71.8805 41.9727c.459 4.746-1.501 7.594-4.636 9.21 5.16 1.255 8.393 4.361 7.756 11.322-.791 8.645-7.153 10.964-16.243 11.492l-.002 9.082h-5.407l.003-8.96c-1.401.001-2.836-.011-4.319-.042v9.002l-5.401-.001-.003-9.098c-1.265-.008-2.553-.03-3.862-.032h-7.037l1.075-6.539s3.999.063 3.93.001c1.53-.003 1.935-1.115 2.031-1.813l.002-14.357c.198-.001.391 0 .571 0-.223-.031-.42-.038-.572-.039v-10.247c-.207-1.111-.92-2.399-3.11-2.4.066-.074-3.927.003-3.927.003l-.001-5.848 7.457.002.001.028c1.121 0 2.271-.022 3.441-.047l.002-8.9926 5.404.0002-.001 8.8164c1.444-.029 2.897-.058 4.318-.058v-8.7582l5.407-.0006v8.9958c6.98.619 12.508 2.793 13.123 9.278zm-7.564 19.454c0-7.092-11.491-6.024-15.156-6.025l-.001 12.054c3.664-.004 15.16.77 15.157-6.029zm-2.515-17.007c-.001-6.452-9.589-5.469-12.641-5.469v10.933c3.052 0 12.639.722 12.641-5.464z" fill="#fff"/></g></g></svg>

<svg width="250" height="250" viewBox="0 0 250 250" fill="none" xmlns="http://www.w3.org/2000/svg">
<g clip-path="url(#clip0_7_471)">
<g clip-path="url(#clip1_7_471)">
<path d="M125 250C194.036 250 250 194.036 250 125C250 55.9644 194.036 0 125 0C55.9644 0 0 55.9644 0 125C0 194.036 55.9644 250 125 250Z" fill="#FCC339"/>
<path d="M176.442 75.7314L177.045 77.0709L153.184 88.0264L163.92 123.574L199.245 105.733L199.705 106.662L199.855 106.491L176.969 75.9767L176.442 75.7314ZM175.155 75.1329L153.489 65.054H97.4654L74.3282 75.677L98.3925 85.8051H151.912L175.155 75.1329ZM72.3939 77.6297L50.729 105.766L85.989 123.574L96.7674 87.8879L72.3939 77.6297ZM99.2686 88.359L88.1302 125.237L124.955 190.33L161.779 125.237L150.641 88.359H99.2686ZM197.017 109.714L164.055 126.361L131.203 184.433L197.017 109.714ZM118.527 184.116L85.8539 126.361L53.0724 109.805L118.527 184.116ZM50.2406 106.59L50.5032 106.059L50.1627 106.501L50.2406 106.59ZM72.0485 73.9183L96.9177 62.5H154.043L178.602 73.9245L203.125 106.621L125.005 195.312L46.875 106.611L72.0485 73.9183ZM143.929 115.891C144.388 120.637 142.428 123.485 139.293 125.101C144.453 126.356 147.686 129.462 147.049 136.423C146.258 145.068 139.896 147.387 130.806 147.915L130.804 156.997L125.397 156.997L125.4 148.037C123.999 148.038 122.564 148.026 121.081 147.995L121.081 156.997L115.68 156.996L115.677 147.898C114.412 147.89 113.124 147.868 111.815 147.866L104.778 147.866L105.853 141.327C105.853 141.327 109.852 141.39 109.783 141.328C111.313 141.325 111.718 140.213 111.814 139.515L111.816 125.158C112.014 125.157 112.207 125.158 112.387 125.158C112.164 125.127 111.967 125.12 111.815 125.119L111.815 114.872C111.608 113.761 110.895 112.473 108.705 112.472C108.771 112.398 104.778 112.475 104.778 112.475L104.777 106.627L112.234 106.629L112.235 106.657C113.356 106.657 114.506 106.635 115.676 106.61L115.678 97.6174L121.082 97.6176L121.081 106.434C122.525 106.405 123.978 106.376 125.399 106.376L125.399 97.6178L130.806 97.6172L130.806 106.613C137.786 107.232 143.314 109.406 143.929 115.891ZM136.365 135.345C136.365 128.253 124.874 129.321 121.209 129.32L121.208 141.374C124.872 141.37 136.368 142.144 136.365 135.345ZM133.85 118.338C133.849 111.886 124.261 112.869 121.209 112.869L121.209 123.802C124.261 123.802 133.848 124.524 133.85 118.338Z" fill="white"/>
</g>
</g>
<defs>
<clipPath id="clip0_7_471">
<rect width="250" height="250" fill="white"/>
</clipPath>
<clipPath id="clip1_7_471">
<rect width="250" height="250" fill="white"/>
</clipPath>
</defs>
</svg>
